icons/justice_fill.svg

<svg width="48" height="48" viewBox="0 0 48 48" fill="none" xmlns="http://www.w3.org/2000/svg">
<path fill-rule="evenodd" clip-rule="evenodd" d="M25 6H23V10.1707C21.9624 10.5375 21.1868 11.4589 21.0294 12.5787L13.7409 14.5342C13.5152 14.5947 13.3178 14.7324 13.1831 14.9233L7.32815 23.2178H6.11987C6.11987 23.9084 6.20191 24.5785 6.35616 25.2178C6.38694 25.3454 6.4206 25.4717 6.45706 25.5967C7.40664 28.8533 10.2544 31.2178 13.6199 31.2178C17.1146 31.2178 20.0512 28.6676 20.8838 25.2171C21.0377 24.579 21.1196 23.91 21.1199 23.2207L21.1199 23.2178H20.185L15.5858 16.1099L21.4266 14.5429C21.7829 15.1357 22.3381 15.5953 23 15.8293V38H20V40H14V42H34V40H28V38H25V15.8293C26.1511 15.4224 26.9797 14.3331 26.9997 13.0474L32.1392 11.6687L28.474 17L27 17C27 17.6904 27.082 18.3603 27.2361 18.9993C28.0687 22.4498 31.0053 25 34.5 25C37.8655 25 40.7133 22.6355 41.6628 19.379C41.6993 19.2539 41.733 19.1276 41.7637 19C41.9026 18.4247 41.9829 17.8243 41.9976 17.2065C41.9992 17.1388 42 17.071 42 17.0029V17H40.0543L35.36 9.48913C35.1467 9.12964 34.7227 8.93295 34.2987 9.02044C34.2794 9.02443 34.2602 9.02898 34.2409 9.03416L26.3606 11.1484C26.0124 10.705 25.5419 10.3622 25 10.1707V6ZM30.9011 17H37.6958L34.4602 11.8231L30.9011 17ZM17.8028 23.2178L13.964 17.2851L9.77623 23.2178H17.8028Z" fill="black"/>
</svg>

<svg
  xmlns="http://www.w3.org/2000/svg"
  width="24"
  height="24"
  viewBox="0 0 24 24"
  fill="none"
  stroke="currentColor"
  stroke-width="2"
  stroke-linecap="round"
  stroke-linejoin="round"
>
  <path
    fill-rule="evenodd"
    d="M25 6h-2v4.17a3 3 0 0 0-1.97 2.409l-7.29 1.955a1 1 0 0 0-.557.39l-5.855 8.294H6.12a8.5 8.5 0 0 0 .337 2.379c.95 3.256 3.797 5.62 7.163 5.62 3.495 0 6.431-2.55 7.264-6a8.5 8.5 0 0 0 .236-1.996v-.003h-.935l-4.6-7.108 5.842-1.567A3 3 0 0 0 23 15.829V38h-3v2h-6v2h20v-2h-6v-2h-3V15.83a3 3 0 0 0 2-2.783l5.14-1.378L28.473 17H27c0 .69.082 1.36.236 2 .833 3.45 3.77 6 7.264 6 3.365 0 6.213-2.364 7.163-5.621q.054-.187.1-.379A8.5 8.5 0 0 0 42 17.003V17h-1.946L35.36 9.49a1 1 0 0 0-1.12-.456l-7.88 2.114a3 3 0 0 0-1.36-.977zm5.901 11h6.795l-3.236-5.177zm-13.098 6.218-3.839-5.933-4.188 5.933z"
    clip-rule="evenodd"
  />
</svg>
